svg/car_tire_alert.svg

<svg xmlns="http://www.w3.org/2000/svg" viewBox="0 0 24 24"><path d="M11 13h2v2h-2zm0-8h2v6h-2zm6-.24c1.86 1.43 3 3.85 3 6.24a8 8 0 0 1-4.14 7H8.14A8 8 0 0 1 4 11c0-2.39 1.09-4.83 3-6.24V2H5v1.86C3.15 5.68 2 8.2 2 11s1.15 5.32 3 7.14V22h2v-2h2v2h2v-2h2v2h2v-2h2v2h2v-3.86c1.85-1.82 3-4.34 3-7.14s-1.15-5.32-3-7.14V2h-2z"/></svg>

<?xml version="1.0" encoding="UTF-8"?><!DOCTYPE svg PUBLIC "-//W3C//DTD SVG 1.1//EN" "http://www.w3.org/Graphics/SVG/1.1/DTD/svg11.dtd"><svg xmlns="http://www.w3.org/2000/svg" xmlns:xlink="http://www.w3.org/1999/xlink" version="1.1" id="mdi-car-tire-alert" width="24" height="24" viewBox="0 0 24 24"><path d="M11,13H13V15H11V13M11,5H13V11H11V5M17,4.76C18.86,6.19 20,8.61 20,11C20,14 18.33,16.64 15.86,18H8.14C5.67,16.64 4,14 4,11C4,8.61 5.09,6.17 7,4.76V2H5V3.86C3.15,5.68 2,8.2 2,11C2,13.8 3.15,16.32 5,18.14V22H7V20H9V22H11V20H13V22H15V20H17V22H19V18.14C20.85,16.32 22,13.8 22,11C22,8.2 20.85,5.68 19,3.86V2H17V4.76Z" /></svg>
